X: 213 
T: Rochester Lass (jig)
C: BB 12/05
N: 182050
L: 1/8
M: 6/8
R: jig
Q: 1/4 = 170
K: D
D|"D" DFA dcd | "G" BGB "A" AFE | "D" DFA dcd | "A"ecB A2 F |
"D"DFA dcd | "G" BGB "Em" gfe | "Bm" fdB "A" AFE | "D"FDD "D"D2 :|
A|"D" Ade fef | "G"gdB gdB | "D"Ade fef | "A" agf ecA |
"D" Ade fef | "G" gfg gab | "D" afd "A"Ace | "D"fdd "D"d2 :|
%%%%%%%%%%%%%%%%%%%%%%
